illustrations/60x60_download_static.svg

<svg width="60" height="60" viewBox="0 0 60 60" fill="none" xmlns="http://www.w3.org/2000/svg">
<path d="M19.635 45C14.3138 45 10 40.6721 10 35.3333C10 30.4096 13.6691 26.3457 18.4139 25.7436C19.5295 20.1856 24.4235 16 30.292 16C36.7641 16 42.0511 21.0911 42.3914 27.4994C46.6852 28.0646 50 31.75 50 36.2121C50 40.8687 46.3901 44.6985 41.8248 45H19.635Z" fill="white" stroke="#1A1C20" stroke-width="2"/>
<path fill-rule="evenodd" clip-rule="evenodd" d="M30.9484 36.1736L34.1932 32.9289C34.5838 32.5384 35.2169 32.5384 35.6075 32.9289C35.998 33.3195 35.998 33.9526 35.6075 34.3431L29.9504 40L24.2933 34.3431C23.9028 33.9526 23.9028 33.3195 24.2933 32.9289C24.6838 32.5384 25.317 32.5384 25.7076 32.9289L28.9484 36.1696L28.9484 27C28.9484 26.4477 29.3961 26 29.9484 26C30.5007 26 30.9484 26.4477 30.9484 27L30.9484 36.1736Z" fill="#00B2B2"/>
</svg>

<svg width="60" height="60" fill="none" xmlns="http://www.w3.org/2000/svg"><path d="M19.635 45C14.314 45 10 40.672 10 35.333c0-4.923 3.67-8.987 8.414-9.59C19.529 20.187 24.424 16 30.292 16c6.472 0 11.76 5.091 12.1 11.5 4.293.565 7.608 4.25 7.608 8.712 0 4.657-3.61 8.486-8.175 8.788h-22.19Z" fill="#fff" stroke="#1A1C20" stroke-width="2"/><path fill-rule="evenodd" clip-rule="evenodd" d="m30.948 36.174 3.245-3.245a1 1 0 0 1 1.414 1.414L29.95 40l-5.657-5.657a1 1 0 0 1 1.414-1.414l3.241 3.24V27a1 1 0 1 1 2 0v9.174Z" fill="#1A1C20"/></svg>
